X: 42466
T: Wet The Tea
R: jig
M: 6/8
K: Aminor
|:cBA BAG|EDB, DA,A,|B,G,G, B,CD|EDE CA,A,|
c2A BAG|EDB, CA,A,|B,G,G, B,CD|CA,G, A,3:|
|:~A3 cAE|~A3 ~c2e|dBG GDB,|G,B,D G2E|
[1 ~A3 cAE|~A3 ~c2e|dce dBG|ABG A2E:|
[2 FEF G^FG|AGA c2A|GED CB,G,|A,B,G, A,3||

